src/basic/400/u27F6-longarrow.svg

<svg width="61" height="32" viewBox="0 0 61 32" fill="none" xmlns="http://www.w3.org/2000/svg">
<path fill-rule="evenodd" clip-rule="evenodd" d="M58.8319,16l-11.2473,-11.14483l0.7039,-0.71033l12.1103,11.99996l0.3584,0.3552l-0.3584,0.3552l-12.1103,12l-0.7039,-0.7104l11.2473,-11.1448h-58.8319v-1z" fill="black"/>
</svg>

<svg width="61" height="32" viewBox="0 0 61 32" fill="none" xmlns="http://www.w3.org/2000/svg">
<path fill-rule="evenodd" clip-rule="evenodd" d="M58.8319 16L47.5846 4.85517L48.2885 4.14484L60.3988 16.1448L60.7572 16.5L60.3988 16.8552L48.2885 28.8552L47.5846 28.1448L58.8319 17H0V16H58.8319Z" fill="black"/>
</svg>
